// Test current syntax of START_NUPIC.scd
(
try {
    "Checking START_NUPIC.scd syntax...".postln;
    File("START_NUPIC.scd", "r").readAllString.compile;
    "✓ Syntax is now correct!".postln;
} { |error|
    "✗ Syntax error still exists:".postln;
    error.errorString.postln;
    ("Error at line: " ++ error.errorString).postln;
};
)