// Test the fixed START_NUPIC.scd syntax
(
"Testing START_NUPIC.scd syntax...".postln;

try {
    var content = File("START_NUPIC.scd", "r").readAllString;
    "✓ File readable".postln;
    
    // Don't actually execute, just check if it parses
    content.compile;
    "✓ Syntax check passed!".postln;
    "".postln;
    "The START_NUPIC.scd file should now work without syntax errors.".postln;
    "You can run: \"START_NUPIC.scd\".load".postln;
    
} { |error|
    "✗ Still has syntax issues:".postln;
    error.errorString.postln;
};
)